src/assets/svg/user-white.svg

<svg width="27" height="30" viewBox="0 0 27 30" fill="none" xmlns="http://www.w3.org/2000/svg">
<path fill-rule="evenodd" clip-rule="evenodd" d="M24 28.5V25.5C24 23.0142 21.9853 21 19.5 21H7.5C5.01471 21 3 23.0142 3 25.5V28.5C3 29.0361 2.71408 29.5312 2.25 29.7993C1.78592 30.0674 1.21408 30.0674 0.75 29.7993C0.285919 29.5312 0 29.0361 0 28.5V25.5C0 21.3574 3.35788 18 7.5 18H19.5C23.6421 18 27 21.3574 27 25.5V28.5C27 29.0361 26.7141 29.5312 26.25 29.7993C25.7859 30.0674 25.2141 30.0674 24.75 29.7993C24.2859 29.5312 24 29.0361 24 28.5ZM6 7.5C6 3.35742 9.35788 0 13.5 0C17.6421 0 21 3.35742 21 7.5C21 11.6426 17.6422 15 13.5 15C9.35788 15 6 11.6426 6 7.5ZM9 7.5C9 9.98584 11.0147 12 13.5 12C15.9853 12 18 9.98584 18 7.5C18 5.01416 15.9853 3 13.5 3C11.0147 3 9 5.01416 9 7.5Z" fill="white"/>
</svg>

<svg xmlns="http://www.w3.org/2000/svg" width="27" height="30" fill="none"><path fill="#fff" fill-rule="evenodd" d="M24 28.5v-3a4.5 4.5 0 0 0-4.5-4.5h-12A4.5 4.5 0 0 0 3 25.5v3a1.5 1.5 0 1 1-3 0v-3A7.5 7.5 0 0 1 7.5 18h12a7.5 7.5 0 0 1 7.5 7.5v3a1.5 1.5 0 1 1-3 0M6 7.5a7.5 7.5 0 1 1 15 0 7.5 7.5 0 1 1-15 0m3 0a4.5 4.5 0 1 0 9 0 4.5 4.5 0 0 0-9 0" clip-rule="evenodd"/></svg>
